X:1
T:Vienna
L:1/8
M:2/2
I:linebreak $
K:Gmin
V:1 treble 
V:1
 G2 G2 G2 g2 | f2 d2 B4 | f2 d2 g2 B2 | ABcA ^F4 | G2 b2 a2 g2 | fgaf g3 a | f2 d2 de f2 | %7
 c3 B/c/ d4 ::$ g2 a4 d2 | a2 ga b4 | bagf edcB | de f2 A4 | A2 c4 d2 | edcB f3 f | g2 d2 edcB | %15
 A4 G4 :| %16
